images/ic_police.svg

<svg width="18" height="18" viewBox="0 0 18 18" fill="none" xmlns="http://www.w3.org/2000/svg">
<path d="M9.86244 10.8148C11.4323 11.0229 12.8807 11.7945 13.9279 13.0023C14.1824 13.2958 14.6264 13.3274 14.9199 13.073C15.2132 12.8186 15.2448 12.3745 14.9904 12.0811C14.0898 11.0425 12.9458 10.2695 11.6783 9.81601C12.6594 9.02925 13.2889 7.82117 13.2889 6.46861C13.2889 5.74956 13.1121 5.05344 12.7742 4.42996C12.9493 4.30458 13.1857 4.12921 13.4239 3.93352C14.2169 3.28244 14.5551 2.80371 14.5551 2.33281C14.5551 1.6908 13.8749 1.36656 13.5845 1.228C13.2276 1.05785 12.7431 0.876709 12.1037 0.674286C12.0125 0.645309 11.9221 0.61647 11.8326 0.587906C10.8871 0.285507 9.99387 0 9.0018 0C7.91965 0 7.1778 0.23497 6.15099 0.560165C5.52696 0.757782 4.9521 0.973526 4.5327 1.16757C3.94946 1.43742 3.40962 1.76523 3.40962 2.33281C3.40962 2.80371 3.748 3.28244 4.5408 3.93352C4.78127 4.131 5.01994 4.30788 5.19545 4.4334C5.19792 4.44644 5.20135 4.45921 5.2041 4.47212C4.88097 5.08543 4.71095 5.76851 4.71095 6.46861C4.71095 7.8224 5.34157 9.03159 6.3243 9.81807C5.47162 10.1242 4.67154 10.5757 3.96484 11.1581C2.57123 12.3069 1.60223 13.9092 1.23639 15.6699C1.11705 16.2449 1.26056 16.8353 1.63025 17.2896C1.99733 17.741 2.54156 17.9997 3.12302 17.9997H5.2383C5.62653 17.9997 5.94142 17.685 5.94142 17.2966C5.94142 16.9084 5.62653 16.5935 5.2383 16.5935H3.12302C2.90865 16.5935 2.77914 16.4736 2.72105 16.4022C2.61957 16.2775 2.58029 16.1149 2.61339 15.956C3.17973 13.2295 5.43427 11.1798 8.13718 10.8156L6.91151 15.7199C6.85164 15.9594 6.92181 16.2129 7.0965 16.3875L8.50275 17.794C8.63458 17.9258 8.81338 18 9.00002 18C9.18651 18 9.36531 17.9258 9.49715 17.794L10.9034 16.3875C11.0779 16.2129 11.1481 15.9596 11.0882 15.7199L9.86244 10.8148ZM5.02956 2.48772C5.34019 2.33748 5.85298 2.12956 6.57561 1.90077C7.54927 1.59233 8.13704 1.40625 9.0018 1.40625C9.77455 1.40625 10.5299 1.64767 11.4044 1.92728C11.4951 1.95625 11.5866 1.9855 11.679 2.01476C12.3228 2.21869 12.7112 2.37305 12.9426 2.48003C12.6887 2.73093 12.2665 3.07411 11.8409 3.36841C11.2539 3.14635 10.2717 2.87169 9.0018 2.87169C7.72327 2.87169 6.72296 3.14964 6.12805 3.37143C5.70522 3.07974 5.28513 2.73903 5.02956 2.48772ZM11.126 4.60712C10.7619 4.96294 10.0421 5.23814 9.0018 5.23814C7.98062 5.23814 7.2352 4.96513 6.85329 4.60822C7.34259 4.4496 8.08403 4.27794 9.0018 4.27794C9.91847 4.27794 10.6482 4.44946 11.126 4.60712ZM6.1172 6.46861C6.1172 6.26701 6.13821 6.06761 6.17914 5.87315C6.22968 5.90927 6.28131 5.94484 6.33528 5.9789C7.02481 6.41437 7.94684 6.64439 9.0018 6.64439C10.0564 6.64439 10.9734 6.41327 11.6536 5.97588C11.7108 5.93921 11.7653 5.90089 11.8184 5.86176C11.8607 6.05951 11.8827 6.26262 11.8827 6.46861C11.8827 8.0582 10.5896 9.35143 9.00002 9.35143C7.41043 9.35143 6.1172 8.0582 6.1172 6.46861ZM8.99988 16.3025L8.37228 15.6747L8.99988 13.1634L9.62747 15.6747L8.99988 16.3025ZM16.3642 17.2886C15.9964 17.7406 15.4543 17.9997 14.8769 17.9997H12.7968C12.4085 17.9997 12.0936 17.685 12.0936 17.2966C12.0936 16.9084 12.4085 16.5935 12.7968 16.5935H14.8769C15.0856 16.5935 15.2148 16.473 15.2732 16.4012C15.3791 16.271 15.4204 16.1029 15.3866 15.9401C15.3075 15.5598 15.5517 15.1876 15.932 15.1085C16.3121 15.0296 16.6844 15.2737 16.7634 15.654C16.8837 16.233 16.7382 16.8289 16.3642 17.2886Z" fill="#3D3D3D"/>
</svg>

<svg xmlns="http://www.w3.org/2000/svg" fill="none" viewBox="0 0 18 18"><path d="M9.862 10.815a6.51 6.51 0 0 1 4.066 2.188c.255.293.7.325.992.07s.325-.698.07-.992c-.9-1.04-2.045-1.812-3.312-2.265.98-.787 1.61-1.995 1.61-3.347 0-.72-.177-1.415-.515-2.04l.65-.496c.793-.65 1.13-1.13 1.13-1.6 0-.642-.68-.966-.97-1.105-.357-.17-.84-.35-1.48-.554l-.27-.086C10.887.286 9.994 0 9.002 0 7.92 0 7.178.235 6.15.56a14.44 14.44 0 0 0-1.618.607c-.583.27-1.123.598-1.123 1.165 0 .47.338.95 1.13 1.6l.655.5.01.04C4.88 5.086 4.71 5.77 4.71 6.47c0 1.354.63 2.563 1.613 3.35-.853.306-1.653.758-2.36 1.34a7.97 7.97 0 0 0-2.728 4.512c-.12.575.024 1.165.394 1.62s.91.7 1.493.7h2.115c.388 0 .703-.315.703-.703s-.315-.703-.703-.703H3.123a.51.51 0 0 1-.402-.191.53.53 0 0 1-.108-.446c.566-2.726 2.82-4.776 5.524-5.14L6.912 15.72c-.06.24.01.493.185.668l1.406 1.406c.132.132.31.206.497.206s.365-.074.497-.206l1.406-1.406c.175-.175.245-.428.185-.668l-1.226-4.905zM5.03 2.488c.31-.15.823-.358 1.546-.587.974-.308 1.56-.495 2.426-.495.773 0 1.528.24 2.403.52l.275.087 1.264.465c-.254.25-.676.594-1.102.888-.587-.222-1.57-.497-2.84-.497-1.278 0-2.28.278-2.874.5-.423-.292-.843-.632-1.1-.884zm6.096 2.12c-.364.356-1.084.63-2.124.63-1.02 0-1.767-.273-2.148-.63.49-.16 1.23-.33 2.148-.33a6.81 6.81 0 0 1 2.124.329zm-5.01 1.86a2.89 2.89 0 0 1 .062-.595l.156.106c.7.435 1.612.665 2.667.665s1.972-.23 2.652-.67l.165-.114a2.9 2.9 0 0 1 .064.607c0 1.6-1.293 2.883-2.883 2.883S6.117 8.058 6.117 6.47zM9 16.303l-.628-.628.628-2.51.628 2.51-.628.628zm7.364.986a1.91 1.91 0 0 1-1.487.711h-2.08c-.388 0-.703-.315-.703-.703s.315-.703.703-.703h2.08c.21 0 .338-.12.396-.192a.55.55 0 0 0 .113-.461c-.08-.38.165-.753.545-.832s.752.165.83.545a1.95 1.95 0 0 1-.399 1.635z" fill="#3d3d3d"/></svg>
